X: 95
T: No_190_Song_of_Thanks_for_a_Gift.krn
N: Derived from No_190_Song_of_Thanks_for_a_Gift.krn
%%abc-version 2.0
%%abcx-abcm2ps-target-version 5.9.1 (29 Sep 2008)
%%abc-creator hum2abc beta
%%abcx-conversion-date 2019/03/15 08:29:13
%%humdrum-veritas 8577954
%%humdrum-veritas-data 2100948587
%%linebreak <none>
%%barnumbers 0
L: 1/4
M: 3/4
%%staves {1 2}
V: 1 clef=bass
V: 2 clef=bass
K: Eb
[V:1] [K:clef=bass][M:3/4]EEE ||  
[V:2] [K:clef=bass][M:3/4]z2z/ G,,/ ||  
[V:1] [M:2/4]F3/E/ | 
[V:2] [M:2/4](3!accent!G,,/ z/ G,,/ (3!accent!G,,/ z/ G,,/ | 
[V:1] F3/E/ | 
[V:2] z2 | 
[V:1] EE/C/ | 
[V:2] z2 | 
[V:1] B,B,- | 
[V:2] z2 | 
[V:1] B,2 | 
[V:2] z2 | 
[V:1] B,3/G,/ ||  
[V:2] z2 ||  
[V:1] [M:3/4]B,3/B,/B, ||  
[V:2] [M:3/4]z3 ||  
[V:1] [M:2/4]B,2 | 
[V:2] [M:2/4]z2 | 
[V:1] B,B, ||  
[V:2] z2 ||  
[V:1] [M:3/4]B,B,-B,/G,/ ||  
[V:2] [M:3/4]z3 ||  
[V:1] [M:2/4]B,2 | 
[V:2] [M:2/4]z2 | 
[V:1] G,3/F,/ | 
[V:2] z2 | 
[V:1] E,B,, | 
[V:2] z2 | 
[V:1] F,3/E,/ | 
[V:2] z2 | 
[V:1] F,2 ||  
[V:2] z2 ||  
[V:1] [M:3/4]E,E,2 ||  
[V:2] [M:3/4]z3 ||  
[V:1] [M:2/4]B,,2 | 
[V:2] [M:2/4]z2 | 
[V:1] B,,3/B,,/ | 
[V:2] z2 | 
[V:1] B,,2 |]  
[V:2] z2 |]  



